X:1
T:Helas, ma fille
T:Helas, ma fille 
T:Jean de Castro
T:Source : Chansons, madrigaux et motetz à 3 parties---Anvers---P.Phalèse---1582. Editor : André Vierendeels (08/10/15).
T:Notes : Original clefs : G2, C2, C3 Editorial accidentals above the staff 
C:Jean de Castro
%%score [ 1 2 3 ]
L:1/8
Q:1/4=100
M:2/2
K:F
V:1 treble nm="Superius" snm="S"
V:2 treble nm="Altus" snm="A"
V:3 treble-8 nm="Tenor" snm="T"
V:1
 A8- | A8 | ^c8- | c4 ^c4 | d8 |"^#" c8 | A4 B4 | A4 z2 A2 | c2 c2 d4 | c2 c4 B2 | A4 A4 |1 z8 :|2 %12
w: He-||las,|_ ma|fil-|le'il|te tu-|ra, de|son grand cho-|se qui re-|mu- e,||
w: He-||las,|_ ma|mè-|re,|non fe-|ra, as-|sez suis for-|te tou- te|nu- e,||
 d2 dd f2 f2 ||"^b" e4 d4 | c4 d4 | c2 cc d2 f2 | e2 f2 d4 | c8 | z4 c4 | B4 A4 | G4 z2 c2 | %21
w: bois de- bout à grand|sous- te-|nu- e,|bois de- bout à grand|sous- te- nu-|e,|fem-|me'à l'en-|vers, fem-|
w: |||||||||
 d4 e4 | f4 d4 |"^#" d4 c4 | d8 | z8 | d4 d2 d2 | ^c4 c4 | d2 d2 B4 | A2 d2 d2 d2 | f4 f4 | %31
w: me'à l'en-|vers por-|te beau-|coup,||il ne m'é-|chaut pas|s'il me tu-|e, il ne m'e-|chaut pas|
w: ||||||||||
 e2 d2 c4 | d8- | d8 | z4 d4 | d2 d2 c4 | f2 d4 c2 | A8- | A4 A4 | z4 d4 | B8- | B4 c4 | d6 cB | %43
w: s'il me tu-|e,|_|il|ne m'é- chaut|pas s'il me|tu-|* e,|mais|que|_ ie|meu- * *|
w: ||||||||||||
 A2 G2 A4 | B4 G4 | B4 B4 | B8- | B4 A4 | z2 c4 A2 | B4 G2 A2 | =B4 c2 A2 | G8- | G8- | G8 |] %54
w: |re, mais|que ie|meu-|* re|d'un beau|coup, d'un beau|coup, d'un beau|coup.|_||
w: |||||||||||
V:2
 F8- | F8 | E8- | E4 E4 | D8 | E8 | F4 G4 | E4 F4 | G2 A2 G4 | A2 A4 G2 | ^F4 F4 |1 z8 :|2 %12
w: He-||las,|_ ma|fil-|le'il|te tu-|ra, de|son grand cho-|se qui re-|mu- e,||
w: He-||las,|_ ma|mè-|re,|non fe-|ra, as-|sez suis for-|te tou- te|nu- e,||
 z2 A3 A A2 || B2 B2 A2 A2 | G4 F4 | A2 AA A2 B2 | c2 A2 G4 | A4 z2 A2 | G4 E4 | D4 z2 F2 | E4 A4 | %21
w: bois de- bout|à grand sous- te-|nu- e,|bois de- bout à grand|sous- te- nu-|e, fem-|me'à l'en-|vers, fem-|me'à l'en-|
w: |||||||||
 A4 G4 | F4 G2 F2 | E2 D2 E4 | ^F8 | z2 G2 G2 G2 | ^F2 F2 G2 G2 | A8 | D2 G4 G2 | F4 B4 | A8 | %31
w: vers por-|te beau- *||coup,|il ne m'é-|chaut pas s'il me|tu-|e, il ne|m'é- chaut|pas|
w: ||||||||||
 G2 F2 G4 | ^F8 | z2 B2 B2 B2 | A6 F2 | A2 B2 G4 | F2 B4 G2 | ^F4 F4 | z4 ^F4 | A4 B4 | G8 | %41
w: s'il me tu-|e,|il ne m'é-|chaut pas|s'il me tu-|e, s'il me|tu- e,|mais|que ie|meu-|
w: ||||||||||
 G4 G4 | F2 D2 G4- | G2 ^FE F4 | G4 D4 | G4 G4 | G8- | G4 ^F4 | z2 E4 ^F2 | G4 E2 ^F2 | G4 G2 ^F2 | %51
w: re, mais|que ie meu-||re, mais|que ie|meu-|* re|d'un beau|coup, d'un beau|coup, d'un beau|
w: ||||||||||
 G4 _E4- | E4 _E4 | D8 |] %54
w: coup, d'un|_ beau|coup.|
w: |||
V:3
 d8- | d8 | A8- | A4 A4 | B8 | A8 | d4 G4 | A4 d4 | c2 A2 B4 | A2 F4 G2 | d4 d4 |1 z8 :|2 %12
w: He-||las,|_ ma|fil-|le'il|te tu-|ra, de|son grand cho-|se qui re-|mu- e,||
w: He-||las,|_ ma|mè-|re,|non fe-|ra, as-|sez suis for-|te tou- te|nu- e,||
 z2 d3 d d2 || g2 g2 f2 f2 | e4 d4 | A2 AA d2 d2 | c2 d2 B4 | A4 z2 F2 | G4 A4 | B4 z2 F2 | c4 f4 | %21
w: bois de- bout|à grand sous- te-|nu- e,|bois de- bout à grand|sous- te- nu-|e, fem-|me'à l'en-|vers, fem-|me'à l'en-|
w: |||||||||
 f4 c4 | d4 G4 | A8 | z2 d2 d2 d2 | c4 c4 | d2 d2 B4 | A8 | G8 | d4 G4 | d4 f4 | c2 d2 e4 | d8 | %33
w: vers por-|te beau-|coup,|il ne m'é-|chaut pas|s'il me tu-|e,|il|ne m'é-|chau pas|s'il me tu-|e,|
w: ||||||||||||
 g4 g2 g2 | f4 d4 | f2 g2 _e4 | d2 B4 c2 | d4 d4 | z4 d4 | d4 d4 | _e8- | e8 | d8- | d8 | G8 | %45
w: il ne m'é-|chaut pas|s'il me tu-|e, s'il me|tu- e,|mais|que ie|meu-||re,|_|mais|
w: ||||||||||||
 G4 G4 | G8- | G4 d4 | z2 c4 d2 | G4 c2 A2 | G4 c2 d2 | G4 c4- | c4 c4 | G8 |] %54
w: que ie|meu-|* re|d'un beau|coup, d'un beau|coup, d'un beau|coup, d'un|_ beau|coup.|
w: |||||||||

